X: 708
T: Kansas Waltz
B: jims roots
M:3/4
L:1/8
Q: 1/4=100
K:D
V:1 
%TablEdited by Jim Kendrick
%320
x4 FE |:"D" D2 F2 A2 | "G"d3c B2 | "D"(3BcB A2 A2 | A4 F2 | "A"A3 F G2 | "G"B3 A G2 |
(3GAG F2 F2 | "D"F4 FE || D2 F2 A2 | d4 f2 | "A"(3efe d2 c2 | "Bm"d3 c B2 |
"A"A3B A2 | A2 B2 c2 | "G"(3efe d2 d2 | [1 "D"d4 FE :| [2 "D"d4 F2 || "A"(3FGF E2 E2 |
E2 F2 G2 | "G"B2 A2 A2 | "D"A4 F2 | "A"A3 F G2 | "G"B3A G2 | G2 F2 F2 | "D"F4 FE |
"D"D2 F2 A2 | d4 f2 | "A"(3efe d2 c2 | "Bm"d3c B2 | "A"A3B A2 | A2 B2 c2 | "G"(3efe d2 d2 | "D"d4 fe|]
% abcbook-tune_id 6298c25d24d85c4f914ad483


% abcbook-boost 0
% abcbook-tablature 
% abcbook-transpose 
% abcbook-lastupdated 1654178399415
% abcbook-soundfonts 
% abcbook-repeats 1


